svg/OSM-icons/man_made #fabe0b °373737 !label=enman made,deKünstliches/22042;man_made=monitoring_station;[monitoring];!label=enmonitoring station,deÜberwach.- station.svg

<svg xmlns="http://www.w3.org/2000/svg" viewBox="0 0 580 580" enable-background="new 0 0 580 580"><path fill="#111" stroke="#eee" stroke-width="3.408" d="m66.28 1.768c-41.34 0-64.57 21.371-64.57 65.04v450.12c0 40.844 20.894 62.23 62.19 62.23h452.02c41.31 0 62.23-20.316 62.23-62.23v-450.12c0-42.601-20.923-65.04-63.52-65.04-.003 0-448.49-.143-448.35 0z"/><path fill="#fff" d="m495.44 283c-3.627-107.8-90.64-194.82-198.44-198.44v-36.451h-14v36.451c-107.8 3.627-194.82 90.64-198.44 198.44h-42.45v14h42.45c3.626 107.8 90.64 194.82 198.44 198.44v16.811 18.825h14v-18.825-16.811c107.8-3.627 194.82-90.64 198.44-198.44h29.637v-14h-29.637m-198.44-125.2c32.731 1.694 63.27 15.243 86.61 38.59s36.897 53.882 38.591 86.61h-39.02c-3.408-46.03-40.16-82.78-86.19-86.19v-39.02m125.2 139.2c-1.694 32.731-15.243 63.26-38.591 86.61-23.348 23.349-53.882 36.897-86.61 38.592v-.223-38.797c46.03-3.408 82.78-40.16 86.19-86.19h39.02zm-139.2-198.44v45.22c-75.28 3.544-135.67 63.941-139.22 139.22h-45.22c3.615-100.08 84.36-180.82 184.44-184.44m0 59.23v39.02c-46.03 3.409-82.78 40.16-86.19 86.19h-39.02c1.694-32.732 15.244-63.27 38.591-86.61s53.882-36.897 86.61-38.591m0 323.64c-100.08-3.615-180.82-84.36-184.44-184.44h45.22c3.544 75.28 63.942 135.67 139.22 139.22v45.22m.0001-59.45v.223c-32.731-1.694-63.26-15.243-86.61-38.592-23.348-23.347-36.898-53.881-38.592-86.61h39.02c3.409 46.03 40.16 82.78 86.19 86.19v38.796m7-98.26c-2.401 0-4.741-.255-7-.732v47.643c-39.06-3.364-70.27-34.571-73.63-73.63h47.642c-.477-2.259-.732-4.6-.732-7 0-2.401.255-4.741.732-7h-47.642c3.364-39.06 34.569-70.27 73.63-73.63v47.642c2.259-.477 4.599-.732 7-.732 2.4 0 4.741.255 7 .732v-47.643c39.06 3.364 70.27 34.569 73.63 73.63h-47.643c.478 2.259.732 4.599.732 7 0 2.4-.255 4.741-.732 7h47.643c-3.364 39.06-34.571 70.27-73.63 73.63v-47.643c-2.259.478-4.6.733-7 .733m7 157.71v-45.22c75.28-3.545 135.67-63.942 139.22-139.22h45.22c-3.615 100.08-84.36 180.82-184.44 184.44m139.22-198.44c-3.545-75.28-63.942-135.67-139.22-139.22v-45.22c100.08 3.615 180.82 84.35 184.44 184.44h-45.22"/></svg>

<?xml version="1.0" encoding="utf-8"?>
<!-- Generator: Adobe Illustrator 15.0.0, SVG Export Plug-In . SVG Version: 6.00 Build 0)  -->
<!DOCTYPE svg PUBLIC "-//W3C//DTD SVG 1.1//EN" "http://www.w3.org/Graphics/SVG/1.1/DTD/svg11.dtd">
<svg version="1.1" xmlns="http://www.w3.org/2000/svg" xmlns:xlink="http://www.w3.org/1999/xlink" x="0px" y="0px" width="580px"
	 height="580px" viewBox="0 0 580 580" enable-background="new 0 0 580 580" xml:space="preserve">
<g id="Layer_2">
	<g id="g1327">
		<path id="path1329" fill="#111111" stroke="#EEEEEE" stroke-width="3.408" d="M66.275,1.768
			c-41.335,0-64.571,21.371-64.571,65.036v450.123c0,40.844,20.894,62.229,62.192,62.229H515.92
			c41.307,0,62.229-20.316,62.229-62.229V66.804c0-42.601-20.923-65.036-63.522-65.036C514.624,1.768,66.133,1.625,66.275,1.768z"/>
	</g>
</g>
<g id="svg2" inkscape:output_extension="org.inkscape.output.svg.inkscape" inkscape:version="0.46" sodipodi:docname="waste_bin.svg" sodipodi:version="0.32" xmlns:dc="http://purl.org/dc/elements/1.1/" xmlns:cc="http://creativecommons.org/ns#" xmlns:sodipodi="http://sodipodi.sourceforge.net/DTD/sodipodi-0.dtd" xmlns:svg="http://www.w3.org/2000/svg" xmlns:rdf="http://www.w3.org/1999/02/22-rdf-syntax-ns#" xmlns:inkscape="http://www.inkscape.org/namespaces/inkscape">
	<path fill="#FFFFFF" d="M495.444,283C491.817,175.2,404.801,88.183,297,84.556V48.105h-14v36.451
		C175.199,88.183,88.182,175.199,84.556,283h-42.45v14h42.45C88.182,404.801,175.199,491.817,283,495.444v16.811v18.825h14v-18.825
		v-16.811C404.801,491.817,491.817,404.801,495.444,297h29.637v-14H495.444z M297,157.796c32.731,1.694,63.266,15.243,86.613,38.59
		S420.51,250.268,422.204,283h-39.02c-3.408-46.028-40.156-82.776-86.185-86.186V157.796z M422.204,297
		c-1.694,32.731-15.243,63.265-38.591,86.612c-23.348,23.349-53.882,36.897-86.613,38.592v-0.223v-38.797
		c46.028-3.408,82.776-40.156,86.185-86.185H422.204z M283,98.565v45.217C207.724,147.326,147.326,207.723,143.782,283H98.564
		C102.179,182.92,182.92,102.179,283,98.565z M283,157.796v39.018c-46.028,3.409-82.776,40.158-86.186,86.186h-39.018
		c1.694-32.732,15.244-63.266,38.591-86.613S250.269,159.49,283,157.796z M283,481.435C182.92,477.82,102.179,397.08,98.564,297
		h45.217c3.544,75.276,63.942,135.674,139.218,139.219V481.435z M283,421.981v0.223c-32.731-1.694-63.265-15.243-86.612-38.592
		C173.04,360.265,159.49,329.731,157.796,297h39.018c3.409,46.028,40.158,82.776,86.186,86.185V421.981z M290,323.721
		c-2.401,0-4.741-0.255-7-0.732v47.643c-39.061-3.364-70.266-34.571-73.63-73.631h47.642c-0.477-2.259-0.732-4.6-0.732-7
		c0-2.401,0.255-4.741,0.732-7H209.37c3.364-39.061,34.569-70.266,73.63-73.63v47.642c2.259-0.477,4.599-0.732,7-0.732
		c2.4,0,4.741,0.255,7,0.732V209.37c39.06,3.364,70.267,34.569,73.631,73.63h-47.643c0.478,2.259,0.732,4.599,0.732,7
		c0,2.4-0.255,4.741-0.732,7h47.643c-3.364,39.06-34.571,70.267-73.631,73.631v-47.643C294.741,323.466,292.4,323.721,290,323.721z
		 M297,481.435v-45.216c75.277-3.545,135.674-63.942,139.219-139.219h45.216C477.82,397.08,397.08,477.82,297,481.435z M436.219,283
		C432.674,207.723,372.277,147.326,297,143.782V98.565C397.08,102.18,477.82,182.92,481.435,283H436.219z"/>
</g>
</svg>
